X:54
T:Scottishe de Penhoet (Michel Marre)
C:Trad 1, 105
M:4/4
L:1/8
K:G
d2d2d3d|cBAB GGAB|\
c2c2c3c|1 ABcd cBAG:|2 ABcd G4||
|:d2d2g4|gfga fe (3ded|\
c2 cg B2 (3BdB|1 AGAc BA G2:|2  AGAB (3GBG-G2||**
